src/assets/duotone/SecurityCard.svg

<svg width="24" height="24" viewBox="0 0 24 24"  xmlns="http://www.w3.org/2000/svg">
<path opacity="0.4" d="M9.41977 2.16L3.91977 4.22C2.86977 4.61 2.00977 5.85999 2.00977 6.97999V15.08C2.00977 15.89 2.53977 16.96 3.18977 17.44L8.68977 21.55C9.65977 22.28 11.2498 22.28 12.2198 21.55L17.7198 17.44C18.3698 16.95 18.8998 15.89 18.8998 15.08V6.97999C18.8998 5.85999 18.0398 4.61 16.9898 4.22L11.4898 2.16C10.9198 1.95 9.98977 1.95 9.41977 2.16Z" />
<path d="M19.2601 6.76001H12.4102C12.2102 6.76001 12.0201 6.77002 11.8401 6.77002C10.1201 6.87002 9.66016 7.50002 9.66016 9.46002V9.85002C9.66016 10.2642 9.99594 10.6 10.4102 10.6H21.2502C21.6644 10.6 22.0002 10.2642 22.0002 9.85002V9.46002C22.0002 7.30002 21.4501 6.76001 19.2601 6.76001Z" />
<path d="M10.4199 11.7C10.0057 11.7 9.66992 12.0358 9.66992 12.45V14.54C9.66992 16.7 10.2199 17.25 12.4099 17.25H19.2599C21.4099 17.25 21.9799 16.73 21.9999 14.66V12.45C21.9999 12.0358 21.6641 11.7 21.2499 11.7H10.4199ZM13.2699 15.47H12.0199C11.7199 15.47 11.4799 15.23 11.4799 14.93C11.4799 14.63 11.7199 14.39 12.0199 14.39H13.2699C13.5699 14.39 13.8099 14.63 13.8099 14.93C13.8099 15.23 13.5699 15.47 13.2699 15.47ZM17.3199 15.47H14.8299C14.5299 15.47 14.2899 15.23 14.2899 14.93C14.2899 14.63 14.5299 14.39 14.8299 14.39H17.3199C17.6199 14.39 17.8599 14.63 17.8599 14.93C17.8699 15.23 17.6199 15.47 17.3199 15.47Z" />
</svg>

<?xml version="1.0" encoding="UTF-8"?>
<svg width="24" height="24" viewBox="0 0 24 24" xmlns="http://www.w3.org/2000/svg">
 <path d="m9.4198 2.16-5.5 2.06c-1.05 0.39-1.91 1.64-1.91 2.76v8.1c0 0.81 0.53 1.88 1.18 2.36l5.5 4.11c0.97 0.73 2.56 0.73 3.53 0l5.5-4.11c0.65-0.49 1.18-1.55 1.18-2.36v-8.1c0-1.12-0.86-2.37-1.91-2.76l-5.5-2.06c-0.57-0.21-1.5-0.21-2.07 0z" opacity=".4"/>
 <path d="m19.26 6.76h-6.8499c-0.2 0-0.3901 0.01001-0.5701 0.01001-1.72 0.1-2.1799 0.73-2.1799 2.69v0.39c0 0.41418 0.33578 0.74998 0.75004 0.74998h10.84c0.4142 0 0.75-0.3358 0.75-0.74998v-0.39c0-2.16-0.5501-2.7-2.7401-2.7z"/>
 <path d="m10.42 11.7c-0.4142 0-0.74998 0.3358-0.74998 0.75v2.09c0 2.16 0.54998 2.71 2.74 2.71h6.85c2.15 0 2.72-0.52 2.74-2.59v-2.21c0-0.4142-0.3358-0.75-0.75-0.75h-10.83zm2.85 3.77h-1.25c-0.3 0-0.54-0.24-0.54-0.54s0.24-0.54 0.54-0.54h1.25c0.3 0 0.54 0.24 0.54 0.54s-0.24 0.54-0.54 0.54zm4.05 0h-2.49c-0.3 0-0.54-0.24-0.54-0.54s0.24-0.54 0.54-0.54h2.49c0.3 0 0.54 0.24 0.54 0.54 0.01 0.3-0.24 0.54-0.54 0.54z"/>
</svg>
